X:1
T: Fire Away
C:J. Scott Skinner
R:Reel
Q: 232
K:F
M:4/4
L:1/8
|:AB|c1/2c1/2c AB cd ef|d1/2d1/2d Bc de fg|e1/2e1/2e cd ef ga|ba gf ed c=B|
c1/2c1/2c AB cd ef|d1/2d1/2d Bc de fg|e1/2e1/2e cd ef ga|f2 a2 f2:|
|:a2|^fg ba g=f ed|=Bc ag fe dc|Bd gf ed c=B|dc =Bc AF A_B|
c1/2c1/2c AB cd ef|d1/2d1/2d Bc de fg|e1/2e1/2e cd ef ga|f2 a2 f2:|
